X: 23794
T: Little Jennifer
R: jig
M: 6/8
K: Eminor
D|EBB EBB|FAd ega|bge f/g/af|edB AFD|
EBB EBB|FAd ega|bge fdB|AFD E2:|
F|GBd cAF|GBd ega|bge f/g/af|edB AFD|
GBd cAF|GBd ega|bge fdB|AFD E2:|

